X:197
T:The Otter's Holt
T:Poll an Madra Uisce
M:4/4
L:1/8
R:reel
C:Martin `Junior' Crehan
N:The song `Take Her in Your Arms' is sung to this tune.
K:Bm
|:de|fBBA FEFB|AFFB ABde|fBBA FEFA|BdcA B2de|
fBBA FEFB|AFFB ABde|fbba fafe|dBcA B2:|
|:Bc|dAdf a2fa|bfaf effe|dAdf adfa|bfaf e2fe|
dAdf a2fa|bfaf efde|fBBA FEFA|BdcA B2:|
